X:305
T: ES WAR EIN JAEGER WOHLGEMUTH
N: E1455
O: Europa, Mitteleuropa, Deutschland, Schwarzwald; Rheinland, Koeln
R: Staende -, Jaeger - Lied, Liebe
M: 3/8
L: 1/16
K: A
 | A2A2A2 | c4A2 | c3BG2 | c3BG2 |
B2B2B2 | e3BB2 | A2G2F2 | E4z2 |
d2d2d2 | c2c2c2 | B2B2B2 | AGAce2 |
A2A2A2 | c3BA2 | c2B2G2 | A4z2

@@@ Tune index: 4989
